X: 10632
P: Copyright.
M: 3/4
L: 1/8
K: C
c4B>d | c>ed>ec2 | g4^f>g | e4c2 |\
d4^c>e | d>fe>fd2 | agfAfe | dcBGe>d |\
c4B>d | c>ed>ec2 | g4^f>g | e4c2 |
a4^g>a | fd^cdfa | c4e>d | "^Fin."c4 H:|\
|: B2 |\
e4^d>^f | e>g^f>ge2 | b4 ^a>b | g4e2 |\
d4^c>e | d>fe>fd2 | a4^g>a | f4d2 |
c4B>d | c>ed>ec2 | g4^f>g | e4c2 |\
a4^g>a | fd^cdfa | c4e>d | c4 :|\
"^Coda."e>f |\
g4a>^f | g4a>^f | g4z2 | z2z2d2 |
e2c2d2 | e2c2d2 | edefde | cBcABc |\
d4e>^c | d4e>^c | d4z2 | z2z2A2 |\


